X:1
T:For Those in Peril On the Sea
M:4/4
L:1/4
K:C
 C| E3/2 E/2 G G| A A G G| c d B G| G ^F G| D| =F3/2 F/2 E E| G3/2 G/2 ^F B|\
 G ^F E A| G ^F E| E| E3/2 E/2 F F| ^F3/2 F/2 G G| G A G E| D3/2 C/2 C|\
 F2 E2|||
